dist/svg/u1F3ED.svg

<?xml version="1.0" encoding="UTF-8"?><svg id="Layer_1" xmlns="http://www.w3.org/2000/svg" viewBox="0 0 40 40"><g><rect x="10.3132" y="6.19216" width="4.3736" height="11.26823" style="fill:#e32939;"/><rect x="25.3132" y="6.1027" width="4.3736" height="11.26823" style="fill:#e32939;"/><rect x="9.52108" y="3.05354" width="5.95784" height="3.13862" rx=".74473" ry=".74473" style="fill:#313d4c;"/><rect x="24.52108" y="2.96408" width="5.95784" height="3.13862" rx=".74473" ry=".74473" style="fill:#313d4c;"/><path d="M35.93164,19.65933c-.00317-.7113-.38391-1.36743-.99994-1.72302l-13.46844-7.77612c-.66669-.38477-1.5,.09631-1.5,.86609v7.48425L5.5,10.16018c-.66663-.38477-1.5,.09631-1.5,.86609v23.85242c0,1.19141,.96588,2.15723,2.15735,2.15723h27.68536c1.19147,0,2.15729-.96582,2.15729-2.15723l-.06836-15.21936Z" style="fill:#d0d5da;"/><path d="M14.5,26.16751c0,.27612-.22388,.5-.5,.5h-2c-.27612,0-.5-.22388-.5-.5v-2c0-.27625,.22388-.5,.5-.5h2c.27612,0,.5,.22375,.5,.5v2Zm7,0c0,.27612-.22388,.5-.5,.5h-2c-.27612,0-.5-.22388-.5-.5v-2c0-.27625,.22388-.5,.5-.5h2c.27612,0,.5,.22375,.5,.5v2Zm7,0c0,.27612-.22388,.5-.5,.5h-2c-.27612,0-.5-.22388-.5-.5v-2c0-.27625,.22388-.5,.5-.5h2c.27612,0,.5,.22375,.5,.5v2Z" style="fill:#8a94a0;"/><path d="M18.50934,31.60235h2.98132c.66559,0,1.20597,.54038,1.20597,1.20597v4.18729h-5.39326v-4.18729c0-.66559,.54038-1.20597,1.20597-1.20597Z" style="fill:#6b7683;"/></g><rect width="40" height="40" style="fill:none;"/></svg>

<svg id="Layer_1" data-name="Layer 1" xmlns="http://www.w3.org/2000/svg" viewBox="0 0 40 40"><defs><style>.cls-1{fill:#e32939;}.cls-2{fill:#313d4c;}.cls-3{fill:#d0d5da;}.cls-4{fill:#8a94a0;}.cls-5{fill:#6b7683;}.cls-6{fill:none;}</style></defs><rect class="cls-1" x="10.313" y="6.192" width="4.374" height="11.268"/><rect class="cls-1" x="25.313" y="6.103" width="4.374" height="11.268"/><rect class="cls-2" x="9.521" y="3.054" width="5.958" height="3.139" rx="0.745"/><rect class="cls-2" x="24.521" y="2.964" width="5.958" height="3.139" rx="0.745"/><path class="cls-3" d="M35.932,19.659a2,2,0,0,0-1-1.723L21.463,10.16a1,1,0,0,0-1.5.866v7.485L5.5,10.16a1,1,0,0,0-1.5.866V34.879a2.157,2.157,0,0,0,2.157,2.157H33.843A2.157,2.157,0,0,0,36,34.879Z"/><path class="cls-4" d="M14.5,26.168a.5.5,0,0,1-.5.5H12a.5.5,0,0,1-.5-.5v-2a.5.5,0,0,1,.5-.5h2a.5.5,0,0,1,.5.5Zm7,0a.5.5,0,0,1-.5.5H19a.5.5,0,0,1-.5-.5v-2a.5.5,0,0,1,.5-.5h2a.5.5,0,0,1,.5.5Zm7,0a.5.5,0,0,1-.5.5H26a.5.5,0,0,1-.5-.5v-2a.5.5,0,0,1,.5-.5h2a.5.5,0,0,1,.5.5Z"/><path class="cls-5" d="M18.509,31.6h2.981A1.206,1.206,0,0,1,22.7,32.808V37a0,0,0,0,1,0,0H17.3a0,0,0,0,1,0,0V32.808A1.206,1.206,0,0,1,18.509,31.6Z"/><rect class="cls-6" width="40" height="40"/></svg>
